outputs/icons/navigation/expand_more_round.svg

<svg xmlns="http://www.w3.org/2000/svg" width="1200" height="1200" fill="none"><g clip-path="url(#a)"><path fill="#000" d="M794 464.503 600 658.505 405.999 464.503c-19.5-19.5-51-19.5-70.5 0s-19.5 51.002 0 70.502L565 764.505c19.5 19.5 51 19.5 70.5 0l229.5-229.5c19.5-19.5 19.5-51.002 0-70.502-19.5-19-51.5-19.5-71 0"/></g><defs><clipPath id="a"><path fill="#fff" d="M0 0h1200v1200H0z"/></clipPath></defs></svg>

<svg width="1200" height="1200" viewBox="0 0 1200 1200" fill="none" xmlns="http://www.w3.org/2000/svg"><g clip-path="url(#clip0_225_2894)"><path d="M794 464.503L600 658.505L406.001 464.503C386.5 445.003 355 445.003 335.5 464.503C316 484.003 316 515.505 335.5 535.005L565 764.505C584.5 784.005 616 784.005 635.5 764.505L865 535.005C884.5 515.505 884.5 484.003 865 464.503C845.5 445.503 813.5 445.003 794 464.503Z" fill="#1D1E23"/></g><defs><clipPath id="clip0_225_2894"><path width="24" fill="white" d="M0 0H1200V1200H0V0z"/></clipPath></defs></svg>
